X:6
%%staffsep .8in
%%staffwidth 750
T:荷塘月色 (Moonlight over the Lotus Pond)
T:(Bass Hulusi in Bb 1)
C:Composed by ZHANG Chao
C:Arranged by LUO Zijun
L:1/8
M:4/4
Q:1/4=98
%%barnumbers 0
%%measurenb 0
V:6 clef=treble
%%jianpu 1
%%MIDI program 5
K:Bbmaj
%%visualtranspose -10_of_semitones
B2 f2 B4 | G2 B2 g4 | B2 f2 G4 | F2 c2 f4 |
B2 f2 B4 | G2 B2 G4 | B2 f2 G4 | B2 F2 B4 ||
B2 F2 B4 | G2 B2 G4 | G2 c2 f4 | B2 F2 B4 |
B2 F2 B4 | G2 B2 G4 | G2 c2 f4 | c2 F2 BG/2B/2cd |
|: B2 F2 B4 | G2 B2 G4 | G2 c2 f4 | B2 F2 BG/2B/2cd |
B2 F2 B4 | G2 B2 G4 | G2 c2 f4 | c2 d2 B4 ||
B2 F2 B4 | G2 B2 G4 | B2 F2 G2 B2 | F2 c2 f4 |
B2 F2 B4 | G2 B2 G4 | c2 G2 c4 | z d/2c/2 BG B4 ||
B2 f2 B4 | G2 B2 g4 | B2 f2 G4 | F2 c2 f4 | 
B2 f2 B4 | G2 B2 G4 | B2 f2 G4 |1 B2 F2 B4 :|2 B2 F2 B4 || B8 |]

